X: 1464
T: Gardeby Laten
B: australian traditional tunes wiki
M:4/4
L:1/8
R: Ganglat
Q: 1/4=100
K:D
V:1 
|:FG|"D"ABAF ABAF|A2fed2c2|"G"BdBG BdBG|B2gfe2d2|"A7"c3B cdcB|
A2egf2ec|1"D"dcde "A7"fefg|"D"a6:|2"D"d2fd "A7"Acec|"D"d3c de||
|:fg|"D"a4a2^ga|"D7"b2a2g2f2|"G"g2gd BGBd|g2f2e2d2|"A7"c3B cdcB|
A2egf2ec|1"D"dcde "A7"fefg|"D"a6:|2"D"d2fd "A7"Acec|"D"d3cd2||
% abcbook-tune_id 6342d53a95c5ebd40d276a50


% abcbook-boost 0
% abcbook-tablature 
% abcbook-transpose 
% abcbook-lastupdated 1665324366366
% abcbook-soundfonts 
% abcbook-repeats 1
% NFF Book 2019
% Bush Traditions recording played by Ingrid Wangel

